report_00007_2020-12-11T15:55:29.892Z/render-blocking-resources/comparison/line/7_vs_8.svg

<svg width="640" height="500" xmlns="http://www.w3.org/2000/svg" xmlns:xlink="http://www.w3.org/1999/xlink"><path fill="#fff" d="M0 0h640v500H0z"/><defs><path id="d" stroke-width=".222" stroke="currentColor" d="M-1-1h2v2h-2z"/><path id="b" stroke-width=".222" stroke="currentColor" d="M0-1.33l-1.33 2h2.66z"/><path id="f" stroke-width=".222" stroke="currentColor" d="M0 1.33L1.265.411.782-1.067l-1.564-.009-.483 1.487z"/><use xlink:href="#b" id="c" stroke="currentColor" transform="rotate(180)"/><use xlink:href="#d" id="e" stroke="currentColor" transform="rotate(45)"/><circle id="a" stroke-width=".222" stroke="currentColor" cx="0" cy="0" r="1"/></defs><g fill="none" color="#000" stroke="currentColor"><path stroke="#000" d="M53.9 444.2h9m552.1 0h-9"/><text transform="translate(45.6 448.1)" stroke="none" fill="#000" font-family="Arial" font-size="12" text-anchor="end"><tspan>150</tspan></text></g><g fill="none" color="#000" stroke="currentColor"><path stroke="#000" d="M53.9 379.5h9m552.1 0h-9"/><text transform="translate(45.6 383.4)" stroke="none" fill="#000" font-family="Arial" font-size="12" text-anchor="end"><tspan>200</tspan></text></g><g fill="none" color="#000" stroke="currentColor"><path stroke="#000" d="M53.9 314.9h9m552.1 0h-9"/><text transform="translate(45.6 318.8)" stroke="none" fill="#000" font-family="Arial" font-size="12" text-anchor="end"><tspan>250</tspan></text></g><g fill="none" color="#000" stroke="currentColor"><path stroke="#000" d="M53.9 250.2h9m552.1 0h-9"/><text transform="translate(45.6 254.1)" stroke="none" fill="#000" font-family="Arial" font-size="12" text-anchor="end"><tspan>300</tspan></text></g><g fill="none" color="#000" stroke="currentColor"><path stroke="#000" d="M53.9 185.5h9m552.1 0h-9"/><text transform="translate(45.6 189.4)" stroke="none" fill="#000" font-family="Arial" font-size="12" text-anchor="end"><tspan>350</tspan></text></g><g fill="none" color="#000" stroke="currentColor"><path stroke="#000" d="M53.9 120.8h9m552.1 0h-9"/><text transform="translate(45.6 124.7)" stroke="none" fill="#000" font-family="Arial" font-size="12" text-anchor="end"><tspan>400</tspan></text></g><g fill="none" color="#000" stroke="currentColor"><path stroke="#000" d="M53.9 56.1h9m552.1 0h-9"/><text transform="translate(45.6 60)" stroke="none" fill="#000" font-family="Arial" font-size="12" text-anchor="end"><tspan>450</tspan></text></g><g fill="none" color="#000" stroke="currentColor"><path stroke="#000" d="M53.9 446v-9m0-418.9v9"/><text transform="translate(53.9 467.9)" stroke="none" fill="#000" font-family="Arial" font-size="12" text-anchor="middle"><tspan>0</tspan></text></g><g fill="none" color="#000" stroke="currentColor"><path stroke="#000" d="M110.6 446v-9m0-418.9v9"/><text transform="translate(110.6 467.9)" stroke="none" fill="#000" font-family="Arial" font-size="12" text-anchor="middle"><tspan>10</tspan></text></g><g fill="none" color="#000" stroke="currentColor"><path stroke="#000" d="M167.3 446v-9m0-418.9v9"/><text transform="translate(167.3 467.9)" stroke="none" fill="#000" font-family="Arial" font-size="12" text-anchor="middle"><tspan>20</tspan></text></g><g fill="none" color="#000" stroke="currentColor"><path stroke="#000" d="M223.9 446v-9m0-418.9v9"/><text transform="translate(223.9 467.9)" stroke="none" fill="#000" font-family="Arial" font-size="12" text-anchor="middle"><tspan>30</tspan></text></g><g fill="none" color="#000" stroke="currentColor"><path stroke="#000" d="M280.6 446v-9m0-418.9v9"/><text transform="translate(280.6 467.9)" stroke="none" fill="#000" font-family="Arial" font-size="12" text-anchor="middle"><tspan>40</tspan></text></g><g fill="none" color="#000" stroke="currentColor"><path stroke="#000" d="M337.3 446v-9m0-418.9v9"/><text transform="translate(337.3 467.9)" stroke="none" fill="#000" font-family="Arial" font-size="12" text-anchor="middle"><tspan>50</tspan></text></g><g fill="none" color="#000" stroke="currentColor"><path stroke="#000" d="M394 446v-9m0-418.9v9"/><text transform="translate(394 467.9)" stroke="none" fill="#000" font-family="Arial" font-size="12" text-anchor="middle"><tspan>60</tspan></text></g><g fill="none" color="#000" stroke="currentColor"><path stroke="#000" d="M450.6 446v-9m0-418.9v9"/><text transform="translate(450.6 467.9)" stroke="none" fill="#000" font-family="Arial" font-size="12" text-anchor="middle"><tspan>70</tspan></text></g><g fill="none" color="#000" stroke="currentColor"><path stroke="#000" d="M507.3 446v-9m0-418.9v9"/><text transform="translate(507.3 467.9)" stroke="none" fill="#000" font-family="Arial" font-size="12" text-anchor="middle"><tspan>80</tspan></text></g><g fill="none" color="#000" stroke="currentColor"><path stroke="#000" d="M564 446v-9m0-418.9v9"/><text transform="translate(564 467.9)" stroke="none" fill="#000" font-family="Arial" font-size="12" text-anchor="middle"><tspan>90</tspan></text></g><path stroke="#000" d="M53.9 18.1V446H615V18.1H53.9z" fill="none" color="#000"/><text transform="translate(275.6 485.9)" stroke="none" fill="#000" font-family="Arial" font-size="12" text-anchor="end" color="#000"><tspan>pages+cached+noexternal+nosvg</tspan></text><path stroke="#9400D3" d="M283.9 482h42.2M53.9 433.9h5.7l5.6-3.9 5.7 5.2 5.7-2.6 5.6 1.3 5.7-5.2 5.7 1.3 5.6 2.6 5.7-2.6 5.7 1.3 5.6-139.7 5.7-265.3 5.7 407.6 5.6-3.9h5.7l5.7 2.6h5.7l5.6 3.9 5.7-399.8 5.7 393.3 5.6 1.3 5.7 1.3 5.7-1.3 5.6 1.3 5.7-1.3 5.7-1.3 5.6 2.6h5.7l5.7 1.3 5.6-3.9 5.7 1.3 5.7-1.3 5.6 2.6 5.7-2.6 5.7-399.8 5.6 1.3 5.7 398.5 5.7 1.3 5.6-1.3h5.7l5.7 1.3 5.6 3.9 5.7-6.5 5.7 1.3 5.6 1.3 5.7 3.9 5.7-3.9 5.6-1.3 5.7-1.3 5.7-397.2L343 430l5.6 1.3 5.7 1.3 5.7-2.6 5.6 5.2 5.7-2.6 5.7-5.2 5.6 2.6 5.7 2.6 5.7-6.5 5.6 5.2h5.7l5.7 1.3 5.6 1.3 5.7-1.3h5.7l5.6-405 5.7 407.6 5.7-2.6h5.6l5.7 1.3 5.7-1.3 5.6-3.9 5.7 2.6 5.7 1.3 5.6 5.2 5.7-7.8 5.7-1.3 5.6 3.9 5.7-1.3 5.7 1.3 5.6 1.3 5.7-1.3 5.7 1.3 5.7-2.6 5.6-1.3h11.4l5.6 2.6 5.7 3.9 5.7-3.9 5.6-2.6 5.7 3.9 5.7-5.2 5.6 2.6 5.7 2.6 5.7-3.9 5.6 2.6 5.7-2.6" fill="none" color="#000"/><text transform="translate(575.1 485.9)" stroke="none" fill="#000" font-family="Arial" font-size="12" text-anchor="end" color="#000"><tspan>pages+cached+noexternal+noimg</tspan></text><path stroke="#009E73" d="M583.4 482h42.2M53.9 431.3l5.7 3.9 5.6-5.2 5.7 2.6L76.6 38l5.6-3.9 5.7-1.3 5.7 402.4 5.6-401.1 5.7 1.3 5.7-1.3 5.6 398.5 5.7-399.8 5.7 1.3 5.6 397.2 5.7-399.8 5.7 1.3 5.7 2.6 5.6-2.6h5.7l5.7 398.5 5.6-401.1 5.7 403.7 5.7-401.1 5.6 402.4 5.7-402.4h5.7l5.6 5.2 5.7-6.5 5.7 5.2h5.6l5.7-7.8 5.7 407.6 5.6-406.3 5.7 10.4 5.7 394.6 5.6-406.3 5.7 6.5 5.7-2.6 5.6-1.3 5.7 401.1 5.7-2.6 5.6 3.9 5.7-397.2h5.7l5.6 395.9 5.7-397.2h5.7l5.6-1.3 5.7 395.9 5.7-392 5.7 395.9 5.6-401.1 5.7-1.3 5.7 402.4 5.6-401.1 5.7 2.6 5.7-1.3 5.6 399.8 5.7-399.8h5.7l5.6-2.6 5.7 402.4 5.7-1.3 5.6-399.8 5.7 401.1L428 40.6l5.6-3.9 5.7 394.6L445 30.2l5.6 6.5 5.7 1.3 5.7 395.9 5.6-1.3 5.7-397.2 5.7 401.1 5.6-395.9 5.7-9.1h5.7l5.6 403.7 5.7-402.4h5.7l5.6 399.8 5.7-397.2 5.7 397.2 5.7 3.9 5.6-405 5.7 3.9 5.7 395.9 5.6 1.3L564 38l5.7-3.9 5.6 397.2L581 31.5l5.7 1.3h5.6l5.7 399.8 5.7-399.8 5.6 7.8 5.7-7.8" fill="none" color="#000"/><g fill="none" color="#000" stroke="currentColor"><path stroke="#000" d="M53.9 18.1V446H615V18.1H53.9z"/></g></svg>

<?xml version="1.0" encoding="utf-8"  standalone="no"?>
<svg 
 width="640" height="500"
 viewBox="0 0 640 500"
 xmlns="http://www.w3.org/2000/svg"
 xmlns:xlink="http://www.w3.org/1999/xlink"
>

<title>Gnuplot</title>
<desc>Produced by GNUPLOT 5.4 patchlevel 0 </desc>

<g id="gnuplot_canvas">

<rect x="0" y="0" width="640" height="500" fill="#ffffff"/>
<defs>

	<circle id='gpDot' r='0.5' stroke-width='0.5' stroke='currentColor'/>
	<path id='gpPt0' stroke-width='0.222' stroke='currentColor' d='M-1,0 h2 M0,-1 v2'/>
	<path id='gpPt1' stroke-width='0.222' stroke='currentColor' d='M-1,-1 L1,1 M1,-1 L-1,1'/>
	<path id='gpPt2' stroke-width='0.222' stroke='currentColor' d='M-1,0 L1,0 M0,-1 L0,1 M-1,-1 L1,1 M-1,1 L1,-1'/>
	<rect id='gpPt3' stroke-width='0.222' stroke='currentColor' x='-1' y='-1' width='2' height='2'/>
	<rect id='gpPt4' stroke-width='0.222' stroke='currentColor' fill='currentColor' x='-1' y='-1' width='2' height='2'/>
	<circle id='gpPt5' stroke-width='0.222' stroke='currentColor' cx='0' cy='0' r='1'/>
	<use xlink:href='#gpPt5' id='gpPt6' fill='currentColor' stroke='none'/>
	<path id='gpPt7' stroke-width='0.222' stroke='currentColor' d='M0,-1.33 L-1.33,0.67 L1.33,0.67 z'/>
	<use xlink:href='#gpPt7' id='gpPt8' fill='currentColor' stroke='none'/>
	<use xlink:href='#gpPt7' id='gpPt9' stroke='currentColor' transform='rotate(180)'/>
	<use xlink:href='#gpPt9' id='gpPt10' fill='currentColor' stroke='none'/>
	<use xlink:href='#gpPt3' id='gpPt11' stroke='currentColor' transform='rotate(45)'/>
	<use xlink:href='#gpPt11' id='gpPt12' fill='currentColor' stroke='none'/>
	<path id='gpPt13' stroke-width='0.222' stroke='currentColor' d='M0,1.330 L1.265,0.411 L0.782,-1.067 L-0.782,-1.076 L-1.265,0.411 z'/>
	<use xlink:href='#gpPt13' id='gpPt14' fill='currentColor' stroke='none'/>
	<filter id='textbox' filterUnits='objectBoundingBox' x='0' y='0' height='1' width='1'>
	  <feFlood flood-color='#FFFFFF' flood-opacity='1' result='bgnd'/>
	  <feComposite in='SourceGraphic' in2='bgnd' operator='atop'/>
	</filter>
	<filter id='greybox' filterUnits='objectBoundingBox' x='0' y='0' height='1' width='1'>
	  <feFlood flood-color='lightgrey' flood-opacity='1' result='grey'/>
	  <feComposite in='SourceGraphic' in2='grey' operator='atop'/>
	</filter>
</defs>
<g fill="none" color="#FFFFFF" stroke="black" stroke-width="1.00" stroke-linecap="butt" stroke-linejoin="miter">
</g>
<g fill="none" color="black" stroke="currentColor" stroke-width="1.00" stroke-linecap="butt" stroke-linejoin="miter">
	<path stroke='black'  d='M53.9,444.2 L62.9,444.2 M615.0,444.2 L606.0,444.2  '/>	<g transform="translate(45.6,448.1)" stroke="none" fill="black" font-family="Arial" font-size="12.00"  text-anchor="end">
		<text><tspan font-family="Arial" > 150</tspan></text>
	</g>
</g>
<g fill="none" color="black" stroke="currentColor" stroke-width="1.00" stroke-linecap="butt" stroke-linejoin="miter">
	<path stroke='black'  d='M53.9,379.5 L62.9,379.5 M615.0,379.5 L606.0,379.5  '/>	<g transform="translate(45.6,383.4)" stroke="none" fill="black" font-family="Arial" font-size="12.00"  text-anchor="end">
		<text><tspan font-family="Arial" > 200</tspan></text>
	</g>
</g>
<g fill="none" color="black" stroke="currentColor" stroke-width="1.00" stroke-linecap="butt" stroke-linejoin="miter">
	<path stroke='black'  d='M53.9,314.9 L62.9,314.9 M615.0,314.9 L606.0,314.9  '/>	<g transform="translate(45.6,318.8)" stroke="none" fill="black" font-family="Arial" font-size="12.00"  text-anchor="end">
		<text><tspan font-family="Arial" > 250</tspan></text>
	</g>
</g>
<g fill="none" color="black" stroke="currentColor" stroke-width="1.00" stroke-linecap="butt" stroke-linejoin="miter">
	<path stroke='black'  d='M53.9,250.2 L62.9,250.2 M615.0,250.2 L606.0,250.2  '/>	<g transform="translate(45.6,254.1)" stroke="none" fill="black" font-family="Arial" font-size="12.00"  text-anchor="end">
		<text><tspan font-family="Arial" > 300</tspan></text>
	</g>
</g>
<g fill="none" color="black" stroke="currentColor" stroke-width="1.00" stroke-linecap="butt" stroke-linejoin="miter">
	<path stroke='black'  d='M53.9,185.5 L62.9,185.5 M615.0,185.5 L606.0,185.5  '/>	<g transform="translate(45.6,189.4)" stroke="none" fill="black" font-family="Arial" font-size="12.00"  text-anchor="end">
		<text><tspan font-family="Arial" > 350</tspan></text>
	</g>
</g>
<g fill="none" color="black" stroke="currentColor" stroke-width="1.00" stroke-linecap="butt" stroke-linejoin="miter">
	<path stroke='black'  d='M53.9,120.8 L62.9,120.8 M615.0,120.8 L606.0,120.8  '/>	<g transform="translate(45.6,124.7)" stroke="none" fill="black" font-family="Arial" font-size="12.00"  text-anchor="end">
		<text><tspan font-family="Arial" > 400</tspan></text>
	</g>
</g>
<g fill="none" color="black" stroke="currentColor" stroke-width="1.00" stroke-linecap="butt" stroke-linejoin="miter">
	<path stroke='black'  d='M53.9,56.1 L62.9,56.1 M615.0,56.1 L606.0,56.1  '/>	<g transform="translate(45.6,60.0)" stroke="none" fill="black" font-family="Arial" font-size="12.00"  text-anchor="end">
		<text><tspan font-family="Arial" > 450</tspan></text>
	</g>
</g>
<g fill="none" color="black" stroke="currentColor" stroke-width="1.00" stroke-linecap="butt" stroke-linejoin="miter">
	<path stroke='black'  d='M53.9,446.0 L53.9,437.0 M53.9,18.1 L53.9,27.1  '/>	<g transform="translate(53.9,467.9)" stroke="none" fill="black" font-family="Arial" font-size="12.00"  text-anchor="middle">
		<text><tspan font-family="Arial" > 0</tspan></text>
	</g>
</g>
<g fill="none" color="black" stroke="currentColor" stroke-width="1.00" stroke-linecap="butt" stroke-linejoin="miter">
	<path stroke='black'  d='M110.6,446.0 L110.6,437.0 M110.6,18.1 L110.6,27.1  '/>	<g transform="translate(110.6,467.9)" stroke="none" fill="black" font-family="Arial" font-size="12.00"  text-anchor="middle">
		<text><tspan font-family="Arial" > 10</tspan></text>
	</g>
</g>
<g fill="none" color="black" stroke="currentColor" stroke-width="1.00" stroke-linecap="butt" stroke-linejoin="miter">
	<path stroke='black'  d='M167.3,446.0 L167.3,437.0 M167.3,18.1 L167.3,27.1  '/>	<g transform="translate(167.3,467.9)" stroke="none" fill="black" font-family="Arial" font-size="12.00"  text-anchor="middle">
		<text><tspan font-family="Arial" > 20</tspan></text>
	</g>
</g>
<g fill="none" color="black" stroke="currentColor" stroke-width="1.00" stroke-linecap="butt" stroke-linejoin="miter">
	<path stroke='black'  d='M223.9,446.0 L223.9,437.0 M223.9,18.1 L223.9,27.1  '/>	<g transform="translate(223.9,467.9)" stroke="none" fill="black" font-family="Arial" font-size="12.00"  text-anchor="middle">
		<text><tspan font-family="Arial" > 30</tspan></text>
	</g>
</g>
<g fill="none" color="black" stroke="currentColor" stroke-width="1.00" stroke-linecap="butt" stroke-linejoin="miter">
	<path stroke='black'  d='M280.6,446.0 L280.6,437.0 M280.6,18.1 L280.6,27.1  '/>	<g transform="translate(280.6,467.9)" stroke="none" fill="black" font-family="Arial" font-size="12.00"  text-anchor="middle">
		<text><tspan font-family="Arial" > 40</tspan></text>
	</g>
</g>
<g fill="none" color="black" stroke="currentColor" stroke-width="1.00" stroke-linecap="butt" stroke-linejoin="miter">
	<path stroke='black'  d='M337.3,446.0 L337.3,437.0 M337.3,18.1 L337.3,27.1  '/>	<g transform="translate(337.3,467.9)" stroke="none" fill="black" font-family="Arial" font-size="12.00"  text-anchor="middle">
		<text><tspan font-family="Arial" > 50</tspan></text>
	</g>
</g>
<g fill="none" color="black" stroke="currentColor" stroke-width="1.00" stroke-linecap="butt" stroke-linejoin="miter">
	<path stroke='black'  d='M394.0,446.0 L394.0,437.0 M394.0,18.1 L394.0,27.1  '/>	<g transform="translate(394.0,467.9)" stroke="none" fill="black" font-family="Arial" font-size="12.00"  text-anchor="middle">
		<text><tspan font-family="Arial" > 60</tspan></text>
	</g>
</g>
<g fill="none" color="black" stroke="currentColor" stroke-width="1.00" stroke-linecap="butt" stroke-linejoin="miter">
	<path stroke='black'  d='M450.6,446.0 L450.6,437.0 M450.6,18.1 L450.6,27.1  '/>	<g transform="translate(450.6,467.9)" stroke="none" fill="black" font-family="Arial" font-size="12.00"  text-anchor="middle">
		<text><tspan font-family="Arial" > 70</tspan></text>
	</g>
</g>
<g fill="none" color="black" stroke="currentColor" stroke-width="1.00" stroke-linecap="butt" stroke-linejoin="miter">
	<path stroke='black'  d='M507.3,446.0 L507.3,437.0 M507.3,18.1 L507.3,27.1  '/>	<g transform="translate(507.3,467.9)" stroke="none" fill="black" font-family="Arial" font-size="12.00"  text-anchor="middle">
		<text><tspan font-family="Arial" > 80</tspan></text>
	</g>
</g>
<g fill="none" color="black" stroke="currentColor" stroke-width="1.00" stroke-linecap="butt" stroke-linejoin="miter">
	<path stroke='black'  d='M564.0,446.0 L564.0,437.0 M564.0,18.1 L564.0,27.1  '/>	<g transform="translate(564.0,467.9)" stroke="none" fill="black" font-family="Arial" font-size="12.00"  text-anchor="middle">
		<text><tspan font-family="Arial" > 90</tspan></text>
	</g>
</g>
<g fill="none" color="black" stroke="currentColor" stroke-width="1.00" stroke-linecap="butt" stroke-linejoin="miter">
</g>
<g fill="none" color="black" stroke="currentColor" stroke-width="1.00" stroke-linecap="butt" stroke-linejoin="miter">
	<path stroke='black'  d='M53.9,18.1 L53.9,446.0 L615.0,446.0 L615.0,18.1 L53.9,18.1 Z  '/></g>
<g fill="none" color="black" stroke="currentColor" stroke-width="1.00" stroke-linecap="butt" stroke-linejoin="miter">
</g>
	<g id="gnuplot_plot_1" ><title>pages+cached+noexternal+nosvg</title>
<g fill="none" color="black" stroke="currentColor" stroke-width="1.00" stroke-linecap="butt" stroke-linejoin="miter">
	<g transform="translate(275.6,485.9)" stroke="none" fill="black" font-family="Arial" font-size="12.00"  text-anchor="end">
		<text><tspan font-family="Arial" >pages+cached+noexternal+nosvg</tspan></text>
	</g>
</g>
<g fill="none" color="black" stroke="currentColor" stroke-width="1.00" stroke-linecap="butt" stroke-linejoin="miter">
	<path stroke='rgb(148,   0, 211)'  d='M283.9,482.0 L326.1,482.0 M53.9,433.9 L59.6,433.9 L65.2,430.0 L70.9,435.2 L76.6,432.6 L82.2,433.9
		L87.9,428.7 L93.6,430.0 L99.2,432.6 L104.9,430.0 L110.6,431.3 L116.2,291.6 L121.9,26.3 L127.6,433.9
		L133.2,430.0 L138.9,430.0 L144.6,432.6 L150.3,432.6 L155.9,436.5 L161.6,36.7 L167.3,430.0 L172.9,431.3
		L178.6,432.6 L184.3,431.3 L189.9,432.6 L195.6,431.3 L201.3,430.0 L206.9,432.6 L212.6,432.6 L218.3,433.9
		L223.9,430.0 L229.6,431.3 L235.3,430.0 L240.9,432.6 L246.6,430.0 L252.3,30.2 L257.9,31.5 L263.6,430.0
		L269.3,431.3 L274.9,430.0 L280.6,430.0 L286.3,431.3 L291.9,435.2 L297.6,428.7 L303.3,430.0 L308.9,431.3
		L314.6,435.2 L320.3,431.3 L325.9,430.0 L331.6,428.7 L337.3,31.5 L343.0,430.0 L348.6,431.3 L354.3,432.6
		L360.0,430.0 L365.6,435.2 L371.3,432.6 L377.0,427.4 L382.6,430.0 L388.3,432.6 L394.0,426.1 L399.6,431.3
		L405.3,431.3 L411.0,432.6 L416.6,433.9 L422.3,432.6 L428.0,432.6 L433.6,27.6 L439.3,435.2 L445.0,432.6
		L450.6,432.6 L456.3,433.9 L462.0,432.6 L467.6,428.7 L473.3,431.3 L479.0,432.6 L484.6,437.8 L490.3,430.0
		L496.0,428.7 L501.6,432.6 L507.3,431.3 L513.0,432.6 L518.6,433.9 L524.3,432.6 L530.0,433.9 L535.7,431.3
		L541.3,430.0 L547.0,430.0 L552.7,430.0 L558.3,432.6 L564.0,436.5 L569.7,432.6 L575.3,430.0 L581.0,433.9
		L586.7,428.7 L592.3,431.3 L598.0,433.9 L603.7,430.0 L609.3,432.6 L615.0,430.0  '/></g>
	</g>
	<g id="gnuplot_plot_2" ><title>pages+cached+noexternal+noimg</title>
<g fill="none" color="black" stroke="currentColor" stroke-width="1.00" stroke-linecap="butt" stroke-linejoin="miter">
	<g transform="translate(575.1,485.9)" stroke="none" fill="black" font-family="Arial" font-size="12.00"  text-anchor="end">
		<text><tspan font-family="Arial" >pages+cached+noexternal+noimg</tspan></text>
	</g>
</g>
<g fill="none" color="black" stroke="currentColor" stroke-width="1.00" stroke-linecap="butt" stroke-linejoin="miter">
	<path stroke='rgb(  0, 158, 115)'  d='M583.4,482.0 L625.6,482.0 M53.9,431.3 L59.6,435.2 L65.2,430.0 L70.9,432.6 L76.6,38.0 L82.2,34.1
		L87.9,32.8 L93.6,435.2 L99.2,34.1 L104.9,35.4 L110.6,34.1 L116.2,432.6 L121.9,32.8 L127.6,34.1
		L133.2,431.3 L138.9,31.5 L144.6,32.8 L150.3,35.4 L155.9,32.8 L161.6,32.8 L167.3,431.3 L172.9,30.2
		L178.6,433.9 L184.3,32.8 L189.9,435.2 L195.6,32.8 L201.3,32.8 L206.9,38.0 L212.6,31.5 L218.3,36.7
		L223.9,36.7 L229.6,28.9 L235.3,436.5 L240.9,30.2 L246.6,40.6 L252.3,435.2 L257.9,28.9 L263.6,35.4
		L269.3,32.8 L274.9,31.5 L280.6,432.6 L286.3,430.0 L291.9,433.9 L297.6,36.7 L303.3,36.7 L308.9,432.6
		L314.6,35.4 L320.3,35.4 L325.9,34.1 L331.6,430.0 L337.3,38.0 L343.0,433.9 L348.6,32.8 L354.3,31.5
		L360.0,433.9 L365.6,32.8 L371.3,35.4 L377.0,34.1 L382.6,433.9 L388.3,34.1 L394.0,34.1 L399.6,31.5
		L405.3,433.9 L411.0,432.6 L416.6,32.8 L422.3,433.9 L428.0,40.6 L433.6,36.7 L439.3,431.3 L445.0,30.2
		L450.6,36.7 L456.3,38.0 L462.0,433.9 L467.6,432.6 L473.3,35.4 L479.0,436.5 L484.6,40.6 L490.3,31.5
		L496.0,31.5 L501.6,435.2 L507.3,32.8 L513.0,32.8 L518.6,432.6 L524.3,35.4 L530.0,432.6 L535.7,436.5
		L541.3,31.5 L547.0,35.4 L552.7,431.3 L558.3,432.6 L564.0,38.0 L569.7,34.1 L575.3,431.3 L581.0,31.5
		L586.7,32.8 L592.3,32.8 L598.0,432.6 L603.7,32.8 L609.3,40.6 L615.0,32.8  '/></g>
	</g>
<g fill="none" color="#FFFFFF" stroke="rgb(  0, 158, 115)" stroke-width="2.00" stroke-linecap="butt" stroke-linejoin="miter">
</g>
<g fill="none" color="black" stroke="currentColor" stroke-width="2.00" stroke-linecap="butt" stroke-linejoin="miter">
</g>
<g fill="none" color="black" stroke="black" stroke-width="1.00" stroke-linecap="butt" stroke-linejoin="miter">
</g>
<g fill="none" color="black" stroke="currentColor" stroke-width="1.00" stroke-linecap="butt" stroke-linejoin="miter">
	<path stroke='black'  d='M53.9,18.1 L53.9,446.0 L615.0,446.0 L615.0,18.1 L53.9,18.1 Z  '/></g>
<g fill="none" color="black" stroke="currentColor" stroke-width="1.00" stroke-linecap="butt" stroke-linejoin="miter">
</g>
</g>
</svg>
